img/tg-grey.svg

<svg width="22" height="22" viewBox="0 0 22 22" fill="none" xmlns="http://www.w3.org/2000/svg">
<g id="telega">
<path id="Vector" d="M9.90054 0C10.3245 0 10.749 0 11.173 0C11.2256 0.0115179 11.2778 0.0296175 11.331 0.0334568C12.91 0.152475 14.3936 0.593447 15.7538 1.40244C18.5488 3.06486 20.2628 5.49624 20.865 8.69877C20.9369 9.07995 20.9736 9.46827 21.0263 9.8533C21.0263 10.2773 21.0263 10.7018 21.0263 11.1258C21.0148 11.1916 21.0016 11.2574 20.9912 11.3232C20.9067 11.8629 20.859 12.4108 20.734 12.9406C19.2443 19.2393 12.4339 22.7056 6.47259 20.2079C1.92302 18.302 -0.66248 13.578 0.167358 8.68725C0.883662 4.46621 4.23483 1.02839 8.44215 0.210065C8.92371 0.116825 9.4146 0.0691075 9.90054 0ZM10.9075 13.4074C11.156 13.5758 11.388 13.7321 11.6195 13.8895C12.406 14.4232 13.1903 14.9601 13.9801 15.4883C14.4123 15.7773 14.9196 15.592 15.0293 15.1071C15.71 12.1092 16.3879 9.11067 17.0652 6.11217C17.1376 5.79186 16.9621 5.48582 16.6407 5.42823C16.4756 5.39861 16.2831 5.4211 16.1241 5.47814C12.1833 6.891 8.2458 8.31154 4.30777 9.73099C4.05932 9.82039 3.94523 9.95477 3.95072 10.1478C3.9562 10.3491 4.08454 10.478 4.34891 10.5499C5.26486 10.7994 6.17916 11.0534 7.0973 11.2952C7.26239 11.3386 7.34247 11.4203 7.39567 11.5804C7.73188 12.5913 8.07852 13.5988 8.42241 14.6069C8.52936 14.9195 8.7312 15.0808 9.01092 15.0303C9.14859 15.0056 9.29284 14.9234 9.39759 14.8274C9.90274 14.3656 10.3953 13.8912 10.9075 13.4074Z" fill="#707070"/>
<path id="Vector_2" d="M8.76099 14.0129C8.73521 13.9559 8.7045 13.9005 8.68475 13.8412C8.416 13.0388 8.14835 12.2364 7.88179 11.4334C7.79568 11.1746 7.8253 11.0961 8.05565 10.9639C10.1887 9.7414 12.3217 8.5194 14.4552 7.29741C14.5024 7.27053 14.5518 7.23104 14.6011 7.2294C14.6543 7.22775 14.7317 7.24914 14.7558 7.28754C14.7777 7.32209 14.7547 7.39997 14.7284 7.44549C14.7031 7.48992 14.6488 7.51844 14.6066 7.553C12.8394 8.99822 11.0733 10.4445 9.30233 11.8848C9.13669 12.0198 9.04729 12.1618 9.02919 12.3801C8.9897 12.8562 8.92224 13.3306 8.86465 13.805C8.85642 13.8708 8.83832 13.935 8.82516 14.0003C8.80322 14.0047 8.78183 14.0091 8.76099 14.0129Z" fill="#707070"/>
</g>
</svg>

<svg width="22" height="22" fill="none" xmlns="http://www.w3.org/2000/svg"><g fill="#707070"><path d="M9.9 0h1.273c.053.012.105.03.158.033 1.579.12 3.063.56 4.423 1.37 2.795 1.662 4.509 4.093 5.111 7.296.072.381.109.77.161 1.154v1.273l-.035.197c-.084.54-.132 1.088-.257 1.618-1.49 6.298-8.3 9.765-14.261 7.267-4.55-1.906-7.135-6.63-6.306-11.52C.884 4.465 4.235 1.027 8.442.21 8.924.117 9.415.07 9.901 0zm1.008 13.407l.712.482c.786.534 1.57 1.071 2.36 1.6.432.288.94.103 1.05-.382.68-2.998 1.358-5.996 2.035-8.995.073-.32-.103-.626-.424-.684a1.05 1.05 0 00-.517.05c-3.94 1.413-7.878 2.834-11.816 4.253-.249.09-.363.224-.357.417.005.201.134.33.398.402.916.25 1.83.503 2.748.745.165.044.245.125.299.285.336 1.011.683 2.019 1.026 3.027.107.313.31.474.589.423a.825.825 0 00.387-.203c.505-.461.997-.936 1.51-1.42z"/><path d="M8.761 14.013c-.026-.057-.056-.113-.076-.172a947.11 947.11 0 01-.803-2.408c-.086-.258-.057-.337.174-.47l6.4-3.666c.046-.026.096-.066.145-.068.053-.001.13.02.155.059.022.034-.001.112-.028.157-.025.045-.08.073-.121.108-1.768 1.445-3.534 2.891-5.305 4.332a.661.661 0 00-.273.495c-.04.476-.107.95-.164 1.425-.009.066-.027.13-.04.195-.022.005-.043.01-.064.013z"/></g></svg>
